X:355
T: Renmin hainian zhouzongli
N: C1856
O: China, Qinghai Hangyuan
S: I, 225]
N: Hui Han
R: Shange, Nanxiangling]
M: 3/4
L: 1/16
K: C
A4D2E2D6E2 | G4A2c2A8
A2(3cAcd8dega | g2AcA6c2 | A2G6-G8
D4A4c6Ac | d2c2d2g2fga2 |
A4A2c2A6(3cAc | A3GG12 | D2E2G4A2c2G4 | G8G4z4

